X:710
T:Quick March by Crompton
A:Wyresdale, Lancashire
B:E and J Winder, 1835-41
L:1/8
M:2/4
O:England
Z:Richard Robinson 
%%TUNEURL: http://www.leeds.ac.uk/music/Info/RRTuneBk/gettune/00001059.html
%%ID:00001059
K:F
A/B/ |\
c2 de | f3 a | agfe | f/e/f/g/ fA/B/ | c2 de | f3 a | agfe | f3 ||
e/f/ | \
g3 a | b3 a | baba | g/f/e/d/ c/d/e/f/ | g3 a | b3 a | baba | g3 A/B/ |
c2 de | f3 a | agfe | f/e/f/g/ fA/B/ | c2 de | f3 a | agfe | f3 |]
%%newpage
%page 53
